X:48
T:Judith's Waltz
M:3/4
L:1/8
R:Waltz
C:Jody Kruskal
N:©2002, Jody Kruskal, ASCAP. Used with permission of the composer.
B:"Feet in the Clouds: 50 Dance Tunes by Jody Kruskal."
N:Contact Jody Kruskal, 359 16th St., Brooklyn, NY, 11215
N:jody:kruskal.net
Z:AK/Fiddler's Companion
K:D
A de |: "D"f2a2A2 | "G"B3 d cB | "A"A4E2 | "D"FA Bc de |
f2a2A2 | "G"B2 ga fg | "Em"ef ed cB | "A"A3 c de | "D" f2a2A2 |
"G"B3 d cB | "A"A4 E2 | "Bm"F2G2A2 | "G"B2ga fg | "Em"e>f ed cB |
"A"AB AG FE |1 "D"D3 A de :|2 "D"D4 DE |: "D"FD EF "G"G2 |
"A"A3Bc2 | "Bm"dA Bc d2 | "A" e4 de | "D"f2a2A2 | "G"B2 ga fg |
"Em"ef ed cB | "A"A4DE | "D"FD EF "G"G2 | "A"A3Bc2 | "Bm"dA Bc d2 |
"G"e4 de | "D"f2a2A2 | "G"B2ga fg | "A"e>f ed c2 |1 "D"d4 DE :|2 "D"d3 |]

